src/lib/packages/icons/src/assets/line/magicoon.svg

<svg width="24" height="24" viewBox="0 0 24 24" fill="none" xmlns="http://www.w3.org/2000/svg">
<path d="M21.6501 11.5201C21.5201 11.2101 21.2801 10.9801 20.9001 10.8201L18.3101 10.0801C16.2101 9.49008 14.5301 7.82008 13.9401 5.72008L13.2001 3.14008C13.0801 2.73008 12.7701 2.42008 12.3601 2.30008C12.0401 2.21008 11.7101 2.25008 11.4301 2.41008C11.1401 2.57008 10.9401 2.83008 10.8501 3.14008L10.1101 5.72008C9.52008 7.82008 7.84007 9.49008 5.73007 10.0801L3.14011 10.8201C2.73011 10.9301 2.41008 11.2601 2.30008 11.6601C2.12008 12.3101 2.49011 12.9901 3.14011 13.1701L5.73007 13.9101C7.83007 14.5001 9.51007 16.1701 10.1001 18.2701L10.8401 20.8501C10.9901 21.3701 11.4701 21.7401 12.0101 21.7401C12.5501 21.7401 13.0301 21.3801 13.1901 20.8501L13.9301 18.2601C14.5201 16.1601 16.2001 14.4901 18.3101 13.8901L20.9701 13.1301C21.2801 13.0101 21.5301 12.7601 21.6501 12.4501C21.7801 12.1401 21.7701 11.8001 21.6501 11.5001V11.5201ZM17.9001 12.4701C15.3001 13.2001 13.2301 15.2701 12.4901 17.8701L12.0201 19.5301L11.5401 17.8701C10.8001 15.2701 8.7301 13.2001 6.1301 12.4701L4.47006 12.0001L6.1301 11.5301C8.7301 10.8001 10.8001 8.73009 11.5401 6.13009L12.0201 4.47008L12.4901 6.13009C13.2301 8.73009 15.3001 10.8001 17.9001 11.5301L19.5601 12.0001L17.9001 12.4701ZM8.39011 18.2401C8.42011 18.3201 8.39009 18.4001 8.31009 18.4301L7.53012 18.6501C6.82012 18.8501 6.26009 19.4001 6.06009 20.1101L5.84012 20.8901C5.84012 20.8901 5.79008 20.9701 5.74008 20.9901C5.66008 21.0101 5.58009 20.9701 5.56009 20.8901L5.34012 20.1101C5.14012 19.4001 4.58009 18.8501 3.87009 18.6501L3.09012 18.4301C3.09012 18.4301 3.01008 18.3801 2.99008 18.3301C2.97008 18.2501 3.01012 18.1801 3.09012 18.1501L3.87009 17.9301C4.58009 17.7301 5.14012 17.1801 5.34012 16.4701L5.56009 15.6901C5.56009 15.6901 5.61006 15.6101 5.66006 15.5901C5.74006 15.5701 5.82012 15.6101 5.84012 15.6901L6.06009 16.4701C6.26009 17.1801 6.82012 17.7301 7.53012 17.9301L8.31009 18.1501C8.31009 18.1501 8.37011 18.1901 8.39011 18.2301V18.2401ZM17.4701 4.88009C17.4701 4.88009 17.4201 4.85009 17.4101 4.82009C17.4001 4.77009 17.4201 4.72008 17.4701 4.70008L17.9901 4.55008C18.4601 4.42008 18.8301 4.05008 18.9701 3.58008L19.1201 3.06008C19.1201 3.06008 19.1501 3.01008 19.1801 3.00008C19.2301 2.99008 19.2801 3.01008 19.3001 3.06008L19.4501 3.58008C19.5801 4.05008 19.9501 4.42008 20.4301 4.55008L20.9501 4.70008C20.9501 4.70008 20.9901 4.73008 21.0001 4.75008C21.0201 4.80008 21.0001 4.86009 20.9501 4.88009L20.4301 5.03008C19.9601 5.16008 19.5901 5.53008 19.4501 6.00008L19.3001 6.52008C19.3001 6.52008 19.2701 6.57008 19.2401 6.58008C19.1901 6.59008 19.1401 6.57009 19.1201 6.52008L18.9701 6.00008C18.8401 5.53008 18.4701 5.16008 17.9901 5.03008L17.4701 4.88009Z" fill="currentColor"/>
</svg>

<svg xmlns="http://www.w3.org/2000/svg" width="24" height="24" fill="none"><path fill="currentColor" d="M21.65 11.52c-.13-.31-.37-.54-.75-.7l-2.59-.74a6.349 6.349 0 0 1-4.37-4.36l-.74-2.58c-.12-.41-.43-.72-.84-.84-.32-.09-.65-.05-.93.11-.29.16-.49.42-.58.73l-.74 2.58a6.344 6.344 0 0 1-4.38 4.36l-2.59.74a1.222 1.222 0 0 0 0 2.35l2.59.74c2.1.59 3.78 2.26 4.37 4.36l.74 2.58c.15.52.63.89 1.17.89.54 0 1.02-.36 1.18-.89l.74-2.59c.59-2.1 2.27-3.77 4.38-4.37l2.66-.76c.31-.12.56-.37.68-.68.13-.31.12-.65 0-.95v.02Zm-3.75.95c-2.6.73-4.67 2.8-5.41 5.4l-.47 1.66-.48-1.66a7.879 7.879 0 0 0-5.41-5.4L4.47 12l1.66-.47c2.6-.73 4.67-2.8 5.41-5.4l.48-1.66.47 1.66c.74 2.6 2.81 4.67 5.41 5.4l1.66.47-1.66.47Zm-9.51 5.77c.03.08 0 .16-.08.19l-.78.22c-.71.2-1.27.75-1.47 1.46l-.22.78s-.05.08-.1.1c-.08.02-.16-.02-.18-.1l-.22-.78a2.12 2.12 0 0 0-1.47-1.46l-.78-.22s-.08-.05-.1-.1c-.02-.08.02-.15.1-.18l.78-.22c.71-.2 1.27-.75 1.47-1.46l.22-.78s.05-.08.1-.1c.08-.02.16.02.18.1l.22.78c.2.71.76 1.26 1.47 1.46l.78.22s.06.04.08.08v.01Zm9.08-13.36s-.05-.03-.06-.06c-.01-.05.01-.1.06-.12l.52-.15c.47-.13.84-.5.98-.97l.15-.52s.03-.05.06-.06c.05-.01.1.01.12.06l.15.52c.13.47.5.84.98.97l.52.15s.04.03.05.05c.02.05 0 .11-.05.13l-.52.15c-.47.13-.84.5-.98.97l-.15.52s-.03.05-.06.06c-.05.01-.1-.01-.12-.06L18.97 6c-.13-.47-.5-.84-.98-.97l-.52-.15Z"/></svg>
